packages/icons/svgs/solid/Source=star.svg

<svg width="12" height="12" viewBox="0 0 12 12" fill="none" xmlns="http://www.w3.org/2000/svg">
<g clip-path="url(#clip0_659_4649)">
<path d="M11.5721 3.98043L8.03211 3.46643L6.44811 0.258434C6.40223 0.179792 6.33653 0.114549 6.25758 0.0692047C6.17862 0.0238608 6.08916 0 5.99811 0C5.90706 0 5.8176 0.0238608 5.73865 0.0692047C5.65969 0.114549 5.594 0.179792 5.54811 0.258434L3.96811 3.46643L0.428114 3.98043C0.335765 3.99384 0.249011 4.03283 0.177667 4.09299C0.106324 4.15314 0.0532379 4.23206 0.0244156 4.32081C-0.00440667 4.40957 -0.00781522 4.50462 0.0145756 4.59521C0.0369664 4.68581 0.0842629 4.76832 0.151114 4.83343L2.71311 7.33343L2.10711 10.8594C2.09129 10.9515 2.10155 11.0461 2.13673 11.1326C2.17191 11.219 2.2306 11.2939 2.30616 11.3488C2.38172 11.4036 2.47113 11.4362 2.56426 11.4429C2.65739 11.4495 2.75053 11.43 2.83311 11.3864L6.00011 9.71843L9.16711 11.3834C9.23853 11.4214 9.31825 11.4409 9.39911 11.4404C9.47198 11.4406 9.544 11.4248 9.61013 11.3942C9.67626 11.3637 9.73491 11.319 9.78196 11.2633C9.82902 11.2077 9.86335 11.1425 9.88255 11.0722C9.90175 11.0019 9.90536 10.9283 9.89311 10.8564L9.28711 7.33043L11.8491 4.83043C11.916 4.76532 11.9633 4.68281 11.9857 4.59221C12.008 4.50162 12.0046 4.40657 11.9758 4.31781C11.947 4.22906 11.8939 4.15014 11.8226 4.08999C11.7512 4.02983 11.6645 3.99084 11.5721 3.97743V3.98043Z" fill="black"/>
</g>
<defs>
<clipPath id="clip0_659_4649">
<rect width="12" height="12" fill="white"/>
</clipPath>
</defs>
</svg>

<svg xmlns="http://www.w3.org/2000/svg" width="12" height="12" viewBox="0 0 12 12"><g clip-path="url(#a)"><path d="m11.572 3.98-3.54-.514L6.448.258a.521.521 0 0 0-.9 0l-1.58 3.208-3.54.514a.5.5 0 0 0-.277.853l2.562 2.5-.606 3.526a.5.5 0 0 0 .726.527L6 9.718l3.167 1.665a.5.5 0 0 0 .726-.527L9.287 7.33l2.562-2.5a.5.5 0 0 0-.277-.853v.003Z"/></g><defs><clipPath id="a"><path fill="#fff" d="M0 0h12v12H0z"/></clipPath></defs></svg>
